assets/ios/swift/Icons.xcassets/notificationsSolid.imageset/notificationsSolid.svg

<svg width="24" height="24" viewBox="0 0 24 24" fill="none" xmlns="http://www.w3.org/2000/svg">
<path d="M20.2928 17.2929C20.9228 17.9229 20.4766 19 19.5857 19H4.41411C3.52321 19 3.07704 17.9229 3.70701 17.2929L4.9999 16V10C4.9999 10 4.9999 3 11.9999 3C18.9999 3 18.9999 10 18.9999 10V16L20.2928 17.2929Z" fill="black"/>
<path d="M11.9999 22C10.8953 22 9.99988 21.1046 9.99988 20H13.9999C13.9999 21.1046 13.1044 22 11.9999 22Z" fill="black"/>
</svg>

<svg xmlns="http://www.w3.org/2000/svg" width="24" height="24" fill="black" viewBox="0 0 24 24">
  <path d="M20.293 17.293c.63.63.184 1.707-.707 1.707H4.414c-.89 0-1.337-1.077-.707-1.707L5 16v-6s0-7 7-7 7 7 7 7v6l1.293 1.293ZM12 22a2 2 0 0 1-2-2h4a2 2 0 0 1-2 2Z"/>
</svg>
